X:1
T:Pange lingua
T:Niccolo Sapiti Arch.Mus. II, 20, fol. 115 ed. by Eyolf Østrem
T:Pange lingua
C:Niccolo Sapiti
%%score [ 1 2 3 4 ]
L:1/8
Q:1/4=384
M:4/2
K:C
V:1 treble nm="Soprano" snm="S"
V:2 treble nm="Alto 1" snm="A"
V:3 treble-8 nm="Tenor" snm="T"
V:4 bass nm="Bass" snm="B"
V:1
 z16 | z16 | z16 | z16 | z16 | z16 | z16 | z16 | z16 | z16 ||[K:F][M:3/1] z24 | z24 | z24 | z24 | %14
w: ||||||||||||||
 z8 A8 B8 | c8 B8 A8 | B16 A8 | G8 B8 B8 | A8 G16 | F24 | z24 | z24 | F16 G4 A4 | B16 A8 | G16 F8 | %25
w: Cór- *|* po- *|ris my-|sté- * ri-|um, _|_|||San- gui- *|nís- que|pre- ti-|
 G12 F4 G4 A4 | G16 G8 | z24 | z8 c8 d8 | B16 A8 | c24 | d16 d8 | B24 | z8 c8 c8 | c16 A8 | %35
w: ó- * * *|* si,||Quem in|mun- di|pré-|* ti-|um|Fru- ctus|ven- tris|
 z8 d8 d8 | d8 B16 | z8 B4 c4 B4 c4 | d24- | d8 c8 B8 | A16 d8 | ^c12 =B4 c4 d4 | ^c16 A8 | z24 | %44
w: fru- ctus|ven- tris|ge- * ne- *|ró-||||* si||
 z24 | z8 A8 G8 | F8 D16 | z24 | z8 d8 c8 | B8 c8 d8 | ^c16 c8 | d24 | z8 A8 G8 | F8 E8 D8 | %54
w: |Rex ef-|fú- dit||Rex ef-|fu- dit _|gén- ti-|um.|Rex ef-|fu- dit _|
 E8 F8 G8 | A8 G4 A4 G4 F4 | E8 F4 E4 F4 G4 | E16 E8 | D24 || z8 F8 F8 | F16 D8 | F16 G8 | %62
w: gen- * *|||* ti|um.|In su-|pré- mæ|no- cte|
 A8 A4 B4 c4 A4 | B8 B4 A4 G4 F4 | E8 E4 D4 E4 F4 | E16 E8 | z24 | z24 | z24 | z24 | z8 A8 B8 | %71
w: coe- * * * *|||* næ|||||Re- *|
 c8 B8 A8 | B16 A8 | G8 B8 B8 | A8 G16 | F24 | z24 | z24 | F16 G4 A4 | B16 A8 | G16 F8 | %81
w: * cúm- *|bens cum|frá- * tri-|bus _|_|||Ob- ser- *|vá *|le- ge|
 G12 F4 G4 A4 | G16 G8 | z24 | z8 c8 d8 | B16 A8 | c24 | d16 d8 | B24 | z8 c8 c8 | c16 A8 | %91
w: ple- * * *|* ne||Ci- bis|in le-|gá-|* li-|bus,|Cib- um|tur- bæ|
 z8 d8 d8 | d8 B16 | z8 B4 c4 B4 c4 | d24 | d8 c8 B8 | A16 d8 | ^c12 !courtesy!=B4 c4 d4 | %98
w: ci- bum|tur- be|du- * o- *|dé-||||
 ^c16 A8 | z24 | z24 | z8 A8 G8 | F8 D16 | z24 | z8 d8 c8 | B8 c8 d8 | ^c16 c8 | d24 | z8 A8 G8 | %109
w: * næ|||Se dat-|su- is||Se- dat|su- is _|má- ni-|bus.|Se- dat|
 F8 E8 D8 | E8 F8 G8 | A8 G4 A4 G4 F4 | E8 F4 E4 F4 G4 | E16 E8 | D24 || z8 F8 F8 | F16 D8 | %117
w: su- is _|ma- * *|||* ni-|bus.|Tan- tum-|er- go|
 F16 G8 | A8 A4 B4 c4 A4 | B8 B4 A4 G4 F4 | E8 E4 D4 E4 F4 | E16 E8 | z24 | z24 | z24 | z24 | %126
w: sa- cra|men- * * * *|||* tum|||||
 z8 A8 B8 | c8 B8 A8 | B16 A8 | G8 B8 B8 | A8 G16 | F24 | z24 | z24 | F16 G4 A4 | B16 A8 | G16 F8 | %137
w: Ve- *|* ne- *|ré- mur|cér- * nu-|i: _|_|||Et an- *|tí- quum|do- cu-|
 G12 F4 G4 A4 | G16 G8 | z24 | z8 c8 d8 | B16 A8 | c24 | d16 d8 | B24 | z8 c8 c8 | c16 A8 | %147
w: mén- * * *|* tum||No- vo|ce- dat|rí-|* tu-|i:|Præ- stet|fi- des|
 z8 d8 d8 | d8 B16 | z8 B4 c4 B4 c4 | d24 | d8 c8 B8 | A16 d8 | ^c12 !courtesy!=B4 c4 d4 | %154
w: Pre- stet|fi- des|sup- * ple- *|mén-||||
 ^c16 A8 | z24 | z24 | z8 A8 G8 | F8 D16 | z24 | z8 d8 c8 | B8 c8 d8 | ^c16 c8 | d24 | z8 A8 G8 | %165
w: * tum|||sen- su-|um _||sen- su-|um de- *|féc- tu-|i.|sen- su-|
 F8 E8 D8 | E8 F8 G8 | A8 G4 A4 G4 F4 | E8 F4 E4 F4 G4 | E16 E8 | D24 |] %171
w: um de- *||||fec- tu-|i.|
V:2
 z16 | z16 | z16 | z16 | z16 | z16 | z16 | z16 | z16 | z16 ||[K:F][M:3/1] z24 | z8 E8 F8 | G24- | %13
w: |||||||||||Cór- *||
 G8 F8 E8 | F24- | F16 C8 | D16 C4 D4 | E8 F16- | F8 F8 E8 | F24 | z24 | z8 B,8 D4 E4 | F8 C16 | %23
w: * po- *|ris|_ my-|sté- * *||* ri- *|um,||San- gui- *|nís- que|
 z8 D8 D8 | E16 F8 | E12 D4 E4 F4 | E16 E8 | G16 A8 | F16 D8 | G16 F4 E4 | F16 G8 | A24 | G16 D8 | %33
w: pre- ti-|ó- *||* si,|Quem in|mun- di|pré- * *|||* ti-|
 E24 | C24 | z8 F8 F8 | F8 D16 | z8 G8 G8 | G8 D16 | z8 F4 G4 F4 G4 | A24 | A24 | A16 A8 | %43
w: um|_|Fru- ctus|ven- tris|Fru- ctus|ven- tris|ge- * ne- *|ró-||* si|
 z8 E8 E8 | D8 E8 F8 | E16 E8 | A,8 A8 A8 | G8 A8 B8 | A16 A8 | D8 G8 F8 | E24 | F24 | z8 E8 E8 | %53
w: Rex ef-|fú- dit _|gén- ti-|um. Rex ef-|fú- dit _|gen- ti-|um Rex ef-|fú-|dit|Rex ef-|
 A8 G8 F8 | E24 | D24 | ^C8 D16- | D16 ^C8 | D24 || z8 D8 D8 | D16 A,8 | D16 E8 | F12 G4 A8 | %63
w: fú- dit _|gén-|||* ti-|um.|In su-|pré- mæ|no- cte|coe- * *|
 G8 G4 F4 E4 D4 | ^C8 C4 !courtesy!=B,4 C4 D4 | E16 ^C8 | z24 | z8 E8 F8 | G24- | G8 F8 E8 | F24- | %71
w: ||* næ||Re- cúm-|bens-|* cum _|frá-|
 F16 C8 | D16 C4 D4 | E8 F16- | F8 F8 E8 | F24 | z24 | z8 B,8 D4 E4 | F8 C16 | z8 D8 D8 | E16 F8 | %81
w: |||* tri- *|bus||Ob- ser- *|vá- ta|le- ge|ple- *|
 E12 D4 E4 F4 | E16 E8 | G16 A8 | F16 D8 | G16 F4 E4 | F16 G8 | A24 | G16 D8 | E24 | C24 | %91
w: |* ne|Ci- bis|in le-|gá- * *|||* li-|bus,|_|
 z8 F8 F8 | F8 D16 | z8 G8 G8 | G8 D16 | z8 F4 G4 F4 G4 | A24 | A24 | A16 A8 | z8 E8 E8 | %100
w: Cib- um|tur- bæ|Cib- um|tur- bæ|du- * o- *|dé-||* næ|Se dat|
 D8 E8 F8 | E16 E8 | A,8 A8 A8 | G8 A8 B8 | A16 A8 | D8 G8 F8 | E24 | F24 | z8 E8 E8 | A8 G8 F8 | %110
w: su- is _|má- ni-|bus. Se dat|su- is _|má- ni-|bus. Se dat|su-|is|Se dat|su- is _|
 E24 | D24 | ^C8 D16- | D16 ^C8 | D24 || z8 D8 D8 | D16 A,8 | D16 E8 | F12 G4 A8 | G8 G4 F4 E4 D4 | %120
w: má-|||* ni-|bus.|Tan- tum|er- go|sa- cra-|men- * *||
 ^C8 C4 !courtesy!=B,4 C4 D4 | E16 ^C8 | z24 | z8 E8 F8 | G24- | G8 F8 E8 | F24- | F16 C8 | %128
w: |* tum||Ve- *||* ne- *|re-|* mur|
 D16 C4 D4 | E8 F16- | F8 F8 E8 | F24 | z24 | z8 B,8 D4 E4 | F8 C16 | z8 D8 D8 | E16 F8 | %137
w: cer- * *||* * nu-|i:||Et an- *|ti- quum|do- cu-|mén- *|
 E12 D4 E4 F4 | E16 E8 | G16 A8 | F16 D8 | G16 F4 E4 | F16 G8 | A24 | G16 D8 | E24 | C24 | %147
w: |* tum|No- vo|ce- dat|rí- * *|||* tu-|i:|_|
 z8 F8 F8 | F8 D16 | z8 G8 G8 | G8 D16 | z8 F4 G4 F4 G4 | A24 | A24 | A16 A8 | z8 E8 E8 | %156
w: Præ- stet|fi- des|Præ- stet|fi- des|sup- * ple- *|mén-||* tum|Sén- su-|
 D8 E8 F8 | E16 E8 | A,8 A8 A8 | G8 A8 B8 | A16 A8 | D8 G8 F8 | E24 | F24 | z8 E8 E8 | A8 G8 F8 | %166
w: um de- *|féc- tu-|i. Sén- su-|um de- *|fec- tu-|i. Sén- su-|um|_|Sén- su-|um de- *|
 E24 | D24 | ^C8 D16- | D16 ^C8 | D24 |] %171
w: féc-|||* tu-|i.|
V:3
 D16 | D16 | D16 | C16 | F16 | F16 | (G16 | A16) | A16 | z16 ||[K:F][M:3/1] z24 | z8 c8 d8 | %12
w: Pan-|ge,|lin-|gua,|glo-|ri-|ó-||si|||Cór- *|
 e8 d8 c8 | d24- | d8 c8 B8 | A8 G8 F8 | f24 | e8 d16 | c16 G8 | A24 | F16 G4 A4 | B24 | A24 | %23
w: * po- *|ris|_ my- *|sté- * *|||* ri-|um,|San- gui- *|nís-|que|
 G16 F8 | E16 D8 | C24 | C24 | z24 | z24 | z8 d8 c8 | f16 c8 | z8 d4 c4 B4 A4 | B12 A4 G4 F4 | %33
w: pre- ti-|ó- *||si,|||Quem in|mun- di|pré- * * *||
 G16 G8 | F8 A8 A8 | A8 F16 | z8 f8 f8 | d8 B16 | z8 d8 e8 | f24- | f8 c8 d8 | e12 d4 e4 f4 | %42
w: * ti-|um Fru- ctus|ven- tris|Fru- ctus|ven- tris|ge- ne-|ró-|||
 e16 e8 | z24 | z24 | z24 | z8 d8 c8 | B8 A8 G8 | ^F24 | G16 G8 | A8 e8 e8 | d8 e8 f8 | e24 | %53
w: * si||||Rex ef-|fú- dit _|gén-|* ti-|um. Rex ef-|fú- dit _|gén-|
 d16 d8 | ^c8 A8 G8 | F8 E8 D8 | A16 A8 | A24 | A24 || z8 z16 | z8 A8 A8 | A16 c8 | c16 f8 | %63
w: |||gén- ti-|um.|_||In su-|pré- mæ|no- cte|
 d16 e8- | e8 e4 f4 e4 d4 | ^c16 A8 | z24 | z8 c8 d8 | e8 d8 c8 | d24- | d8 c8 B8 | A8 G8 F8 | %72
w: coe- *||* næ||Re- *|* cúm- *|bens|_ cum _|frá- * *|
 f24 | e8 d16 | c16 G8 | A24 | F16 G4 A4 | B24 | A24 | G16 F8 | E16 D8 | C24 | C24 | z24 | z24 | %85
w: ||* tri-|bus|Ob- ser- *|vá-|ta|le- ge|ple- *||ne|||
 z8 d8 c8 | f16 c8 | z8 d4 c4 B4 A4 | B12 A4 G4 F4 | G16 G8 | F8 A8 A8 | A8 F16 | z8 f8 f8 | %93
w: Ci- bis|in le-|gá- * * *||* li-|bus, Cib- um|tur- bæ|Cib- um|
 d8 B16 | z8 d8 e8 | f24- | f8 c8 d8 | e12 d4 e4 f4 | e16 e8 | z24 | z24 | z24 | z8 d8 c8 | %103
w: tur- bæ|du- o-|dé-|||* næ||||Se dat|
 B8 A8 G8 | ^F24 | G16 G8 | A8 e8 e8 | d8 e8 f8 | e24 | d16 d8 | ^c8 A8 G8 | F8 E8 D8 | A16 A8 | %113
w: su- is _|má-|* ni-|bus. Se dat|su- is _|má-||||* ni-|
 A24 | A24 || z8 z16 | z8 A8 A8 | A16 c8 | c16 f8 | d16 e8- | e8 e4 f4 e4 d4 | ^c16 A8 | z24 | %123
w: bus.|_||Tan- tum|er- go|sa- cra-|men- *||* tum||
 z8 c8 d8 | e8 d8 c8 | d24- | d8 c8 B8 | A8 G8 F8 | f24 | e8 d16 | c16 G8 | A24 | F16 G4 A4 | B24 | %134
w: Ve- *|* ne- *|ré-|* mur _|cér- * *|||* nu-|i:|Et an- *|tí-|
 A24 | G16 F8 | E16 D8 | C24 | C24 | z24 | z24 | z8 d8 c8 | f16 c8 | z8 d4 c4 B4 A4 | %144
w: quum|do- cu-|mén- *||tum|||No- vo|ce- dat|rí- * * *|
 B12 A4 G4 F4 | G16 G8 | F8 A8 A8 | A8 F16 | z8 f8 f8 | d8 B16 | z8 d8 e8 | f24- | f8 c8 d8 | %153
w: |* tu-|i: Præ- stet|fi- des|Præ- stet|fi- des|sup- ple-|mén-||
 e12 d4 e4 f4 | e16 e8 | z24 | z24 | z24 | z8 d8 c8 | B8 A8 G8 | ^F24 | G16 G8 | A8 e8 e8 | %163
w: |* tum||||Sén- su-|um de- *|féc-|* tu-|i. Sén- su-|
 d8 e8 f8 | e24 | d16 d8 | ^c8 A8 G8 | F8 E8 D8 | A16 A8 | A24 | A24 |] %171
w: um de- *|féc-||||* tu-|i.|_|
V:4
 z16 | z16 | z16 | z16 | z16 | z16 | z16 | z16 | z16 | z16 ||[K:F][M:3/1] z8 A,8 B,8 | C24- | %12
w: ||||||||||Cór- *||
 C8 B,8 A,8 | B,24- | B,8 A,8 G,8 | F,24 | B,,16 F,8 | C,8 B,,16 | C,16 C,8 | F,,24 | z24 | z24 | %22
w: * po- *|ris|_ my- *|sté-|||* ri-|um,|||
 z24 | z24 | z24 | z24 | z24 | z24 | z24 | G,16 A,8 | F,16 E,8 | D,16 D,8 | G,12 F,4 E,4 D,4 | %33
w: |||||||Quem- in|mun- di|pré- ti-|um _ _ _|
 C,24 | z8 F,8 F,8 | F,8 D,16 | z8 B,8 B,8 | B,8 G,16 | z8 B,,8 C,8 | D,16 E,8 | F,8 E,8 D,8 | %41
w: _|Fru- ctus|ven- tris|fru- ctus|ven- tris|ge- ne-|ró- *||
 A,24 | A,,24 | A,16 G,8 | F,8 E,8 D,8 | ^C,24 | D,24 | G,24 | A,16 A,8 | B,24 | z8 A,8 G,8 | %51
w: |si|Rex ef-|fú- dit _|gén-|||* ti-|um.|Rex ef-|
 F,8 E,8 D,8 | ^C,24 | D,24 | A,,24 | A,,24 | A,,24 | A,,16 A,,8 | D,24 || z24 | z8 D,8 D,8 | %61
w: fú- dit _|gén-|||||* ti-|um.||In su-|
 D,16 C,8 | F,16 F,8 | G,24 | A,24 | A,16 A,8 | z8 A,8 B,8 | C24- | C8 B,8 A,8 | B,24- | %70
w: pré- mæ|no- cte|coe-||* næ|Re- *||* cúm- *|bens|
 B,8 A,8 G,8 | F,24 | B,,16 F,8 | C,8 B,,16 | C,16 C,8 | F,,24 | z24 | z24 | z24 | z24 | z24 | %81
w: _ cum _|frá-|||* tri-|bus||||||
 z24 | z24 | z24 | z24 | G,16 A,8 | F,16 E,8 | D,16 D,8 | G,12 F,4 E,4 D,4 | C,24 | z8 F,8 F,8 | %91
w: ||||Ci- bis|in le-|gá- li-|bus, _ _ _|_|Cib- um|
 F,8 D,16 | z8 B,8 B,8 | B,8 G,16 | z8 B,,8 C,8 | D,16 E,8 | F,8 E,8 D,8 | A,24 | A,,24 | %99
w: tur- bæ|Ci- bum|tur- be|du- o-|dé- *|||næ|
 A,16 G,8 | F,8 E,8 D,8 | ^C,24 | D,24 | G,24 | A,16 A,8 | B,24 | z8 A,8 G,8 | F,8 E,8 D,8 | %108
w: Se dat|su- is _|má-|||* ni-|bus.|Se- dat|su- is _|
 ^C,24 | D,24 | A,,24 | A,,24 | A,,24 | A,,16 A,,8 | D,24 || z24 | z8 D,8 D,8 | D,16 C,8 | %118
w: má-|||||* ni-|bus.||Tan- tum|er- go|
 F,16 F,8 | G,24 | A,24 | A,16 A,8 | z8 A,8 B,8 | C24- | C8 B,8 A,8 | B,24- | B,8 A,8 G,8 | F,24 | %128
w: sa- cra-|men-||* tum|Ve- *||* ne- *|ré-|* mur _|cér-|
 B,,16 F,8 | C,8 B,,16 | C,16 C,8 | F,,24 | z24 | z24 | z24 | z24 | z24 | z24 | z24 | z24 | z24 | %141
w: ||* nu-|i:||||||||||
 G,16 A,8 | F,16 E,8 | D,16 D,8 | G,12 F,4 E,4 D,4 | C,24 | z8 F,8 F,8 | F,8 D,16 | z8 B,8 B,8 | %149
w: No- vo|ce- dat|rí- tu-|i: _ _ _|_|Præ- stet|fi- des|Præ- stet|
 B,8 G,16 | z8 B,,8 C,8 | D,16 E,8 | F,8 E,8 D,8 | A,24 | A,,24 | A,16 G,8 | F,8 E,8 D,8 | ^C,24 | %158
w: fi- des|sup- ple-|mén- *|||tum|Sén- su-|um de- *|féc-|
 D,24 | G,24 | A,16 A,8 | B,24 | z8 A,8 G,8 | F,8 E,8 D,8 | ^C,24 | D,24 | A,,24 | A,,24 | A,,24 | %169
w: ||* tu-|i.|Sen- su-|um de- *|féc-|||||
 A,,16 A,,8 | D,24 |] %171
w: * tu-|i.|

